X: 1
T: Gentle Maiden
C: Irish Trad (O'Neill's Music of Ireland, #282)
R: waltz
N: Also played as a jig.
M: 3/4
L: 1/4
K: G
|: D \
||"G"G>AG | "D"FED | "G"d>^cd | "C"efg |
  "G"dcB | "Em"BAG | "C"E2G | "D7"F>ED |
  "G"G>AG | "D7"FED | "G"d>^cd | "C"efg |
  "G"d>cB | "D7"A2F | "G"G3- | G2 :|
|: d \
||"G"d>ef | "Em"g>fe | "C"g>fe | "Am"g>fe |
  "G"d>cB | "Em"BAG | "C"E2G | "D7"F>ED |
  "G"G>AG | "D"FED | "G"d>^cd | "C"efg |
  "G"d>cB | "D7"A2F | "G"G3- | G2 :|
N:HOI - abc by Peter Ostapenko to match HOI 3/15/2007
N:(Also see The Waltz Book, pg 25)
N:G Major
